src/images/single-assets/IDIA.svg

<svg xmlns="http://www.w3.org/2000/svg" width="96" height="96" fill="none" viewBox="0 0 96 96"><path fill="#080A26" d="M48 96C74.5097 96 96 74.5097 96 48C96 21.4903 74.5097 0 48 0C21.4903 0 0 21.4903 0 48C0 74.5097 21.4903 96 48 96Z"/><path fill="#FF0EA9" d="M53.6492 25.2083L34.5195 74.1823C34.5195 74.1823 34.1299 75.3513 32.8052 75.585C31.6364 75.8188 30.7792 75.1951 30.3507 74.494C30 73.9095 30 73.2862 30 73.2862V24.3122C30 23.0265 31.0519 21.9745 32.3377 21.9745L51.3895 21.9355C53.1039 21.9745 54.2337 23.6498 53.6492 25.2083Z"/><path fill="#00DAFF" d="M59.9221 29.7667C60.7012 28.0134 62.6105 28.0914 63.4287 28.7147C63.5454 28.8316 63.6233 28.8706 63.6233 28.8316C69.7012 34.1303 73.4027 42.0005 72.9349 50.6497C72.1558 64.9874 60.3508 76.325 45.8182 76.325H45.1558C43.5585 76.2862 42.3116 74.7668 43.0128 73.0133L59.9221 29.7667Z"/></svg>

<svg xmlns="http://www.w3.org/2000/svg" width="96" height="96" fill="none"><path fill="#080A26" d="M48 96c26.51 0 48-21.49 48-48S74.51 0 48 0 0 21.49 0 48s21.49 48 48 48"/><path fill="#FF0EA9" d="M53.65 25.208 34.52 74.182s-.39 1.17-1.715 1.403c-1.169.234-2.026-.39-2.454-1.091C30 73.909 30 73.286 30 73.286V24.312a2.345 2.345 0 0 1 2.338-2.338l19.051-.038c1.715.038 2.845 1.714 2.26 3.272"/><path fill="#00DAFF" d="M59.922 29.767c.78-1.754 2.689-1.676 3.507-1.052.116.117.194.156.194.117C69.701 34.13 73.403 42 72.935 50.65c-.78 14.337-12.584 25.675-27.117 25.675h-.662c-1.597-.039-2.844-1.558-2.143-3.312z"/></svg>
